icons/rubocop-light.svg

<svg width="256" height="256" viewBox="0 0 256 256" fill="none" xmlns="http://www.w3.org/2000/svg">
<path d="M196 0H60C26.8629 0 0 26.8629 0 60V196C0 229.137 26.8629 256 60 256H196C229.137 256 256 229.137 256 196V60C256 26.8629 229.137 0 196 0Z" fill="#F4F2ED"/>
<path d="M216.4 111.2V104C216.407 102.107 216.04 100.231 215.319 98.4806C214.598 96.7301 213.537 95.1398 212.199 93.8011C210.86 92.4625 209.27 91.4021 207.519 90.681C205.769 89.96 203.893 89.5926 202 89.6H53.2C51.3069 89.5926 49.4311 89.96 47.6806 90.681C45.9302 91.4021 44.3398 92.4625 43.0012 93.8011C41.6625 95.1398 40.6021 96.7301 39.8811 98.4806C39.16 100.231 38.7926 102.107 38.8 104V111.2C37.1731 112.242 35.817 113.656 34.8434 115.325C33.8698 116.994 33.3065 118.871 33.2 120.8V140C33.2069 141.951 33.7283 143.866 34.7115 145.552C35.6946 147.237 37.1049 148.633 38.8 149.6V156.8C38.7926 158.693 39.16 160.569 39.8811 162.319C40.6021 164.07 41.6625 165.66 43.0012 166.999C44.3398 168.337 45.9302 169.398 47.6806 170.119C49.4311 170.84 51.3069 171.207 53.2 171.2H202.8C204.693 171.207 206.569 170.84 208.319 170.119C210.07 169.398 211.66 168.337 212.999 166.999C214.337 165.66 215.398 164.07 216.119 162.319C216.84 160.569 217.207 158.693 217.2 156.8V149.6C218.827 148.558 220.183 147.144 221.157 145.475C222.13 143.806 222.693 141.929 222.8 140V120.8C222.481 118.836 221.744 116.962 220.64 115.307C219.536 113.651 218.09 112.25 216.4 111.2Z" fill="#000000"/>
<path d="M127.6 16C108.428 16.0699 89.9283 23.0745 75.5179 35.7204C61.1075 48.3663 51.7594 65.7993 49.2 84.8H206C203.441 65.7993 194.093 48.3663 179.682 35.7204C165.272 23.0745 146.772 16.0699 127.6 16Z" fill="#000000"/>
<path d="M104.4 192H150.8L155.6 197.6L162.8 192L155.6 183.2H99.6L92.4 192L99.6 197.6L104.4 192Z" fill="#282828"/>
<path d="M188.4 140.8H66.8C64.0417 140.8 61.3965 139.704 59.4461 137.754C57.4957 135.804 56.4 133.158 56.4 130.4C56.4 127.642 57.4957 124.996 59.4461 123.046C61.3965 121.096 64.0417 120 66.8 120H189.2C191.943 120.049 194.56 121.161 196.499 123.101C198.439 125.04 199.551 127.657 199.6 130.4C199.243 133.169 197.927 135.726 195.881 137.626C193.835 139.526 191.188 140.649 188.4 140.8Z" fill="#EC1C24"/>
<path d="M184.4 176V206.4C184.266 210.389 182.622 214.178 179.8 217C176.978 219.822 173.189 221.466 169.2 221.6H161.2C160.28 221.54 159.382 221.297 158.558 220.885C157.733 220.473 157 219.9 156.4 219.2L146.8 206.4C146.33 205.567 145.622 204.894 144.767 204.467C143.912 204.039 142.948 203.876 142 204H113.2C111.717 204.03 110.295 204.599 109.2 205.6L98.8 218.4C98.3299 219.233 97.6219 219.906 96.7667 220.333C95.9115 220.761 94.9481 220.924 94 220.8H86C82.0112 220.666 78.2222 219.022 75.4001 216.2C72.578 213.378 70.9337 209.589 70.8 205.6V176H52.4V206.4C52.4525 215.295 56.0093 223.811 62.2992 230.101C68.5891 236.391 77.1049 239.948 86 240H169.2C178.095 239.948 186.611 236.391 192.901 230.101C199.191 223.811 202.748 215.295 202.8 206.4V176H184.4Z" fill="#000000"/>
</svg>

<svg xmlns="http://www.w3.org/2000/svg" width="256" height="256" fill="none"><path fill="#F4F2ED" d="M196 0H60C26.863 0 0 26.863 0 60v136c0 33.137 26.863 60 60 60h136c33.137 0 60-26.863 60-60V60c0-33.137-26.863-60-60-60"/><path fill="#000" d="M216.4 111.2V104a14.35 14.35 0 0 0-4.201-10.199A14.35 14.35 0 0 0 202 89.6H53.2A14.345 14.345 0 0 0 38.8 104v7.2a12.2 12.2 0 0 0-5.6 9.6V140a11.1 11.1 0 0 0 5.6 9.6v7.2a14.34 14.34 0 0 0 8.88 13.319 14.4 14.4 0 0 0 5.52 1.081h149.6a14.35 14.35 0 0 0 13.319-8.881 14.4 14.4 0 0 0 1.081-5.519v-7.2a12.2 12.2 0 0 0 5.6-9.6v-19.2a13.94 13.94 0 0 0-6.4-9.6M127.6 16a79.4 79.4 0 0 0-78.4 68.8H206A79.396 79.396 0 0 0 127.6 16"/><path fill="#282828" d="M104.4 192h46.4l4.8 5.6 7.2-5.6-7.2-8.8h-56l-7.2 8.8 7.2 5.6z"/><path fill="#EC1C24" d="M188.4 140.8H66.8a10.401 10.401 0 0 1-7.354-17.754A10.4 10.4 0 0 1 66.8 120h122.4a10.6 10.6 0 0 1 7.299 3.101 10.6 10.6 0 0 1 3.101 7.299 11.95 11.95 0 0 1-11.2 10.4"/><path fill="#000" d="M184.4 176v30.4a15.737 15.737 0 0 1-15.2 15.2h-8a6.9 6.9 0 0 1-4.8-2.4l-9.6-12.8a4.8 4.8 0 0 0-2.033-1.933A4.8 4.8 0 0 0 142 204h-28.8a6.1 6.1 0 0 0-4 1.6l-10.4 12.8a4.8 4.8 0 0 1-2.033 1.933A4.8 4.8 0 0 1 94 220.8h-8a15.74 15.74 0 0 1-15.2-15.2V176H52.4v30.4A33.8 33.8 0 0 0 86 240h83.2a33.8 33.8 0 0 0 33.6-33.6V176z"/></svg>
